X: 20942
T: VICTORIA'S SETT (tune 2)
C:
%R: jig
B: Elias Howe "The Musician's Companion" 1843 p.94 #2
S: http://imslp.org/wiki/The_Musician's_Companion_(Howe,_Elias)
Z: 2015 John Chambers <jc:trillian.mit.edu>
M: 6/8
L: 1/8
K: F
% - - - - - - - - - - - - - - - - - - - - - - - - - - - - -
V: 1 name="2"
A/B/ |\
cdc cAc | BcB BGB | AGF cBA | GGG GAB |\
cdc cAc | BcB BGB | AGF GFE | FFF F2 H|]
A |\
G2A G2A | GGG GAB | A2B A2B | AAA ABc |\
d>cd c3 | BAB ABc | def cBA | BAG "^D.C."F2 |]
% - - - - - - - - - - Dance description - - - - - - - - - -
%%begintext align
%% First two forward and back,
%% cross over,
%% chassa de chassa,
%% cross back,
%% balance four,
%% next two forward, &c.
%%endtext
% - - - - - - - - - - - - - - - - - - - - - - - - - - - - -
%%sep 1 1 300

%%sep 1 1 500

